src/assets/images/percent.svg

<svg width="47" height="47" fill="none" xmlns="http://www.w3.org/2000/svg"><path d="M16.03 24.37c-1.58 0-2.87-.52-3.87-1.56s-1.5-2.46-1.5-4.26c0-1.18.23-2.21.69-3.09.46-.88 1.09-1.55 1.89-2.01.82-.48 1.75-.72 2.79-.72 1.6 0 2.9.53 3.9 1.59 1 1.04 1.5 2.45 1.5 4.23 0 1.8-.5 3.22-1.5 4.26-1 1.04-2.3 1.56-3.9 1.56zM28.45 13h4.32L18.43 34h-4.32l14.34-21zm-12.42 8.52c.54 0 .97-.24 1.29-.72.32-.48.48-1.23.48-2.25s-.16-1.77-.48-2.25c-.32-.48-.75-.72-1.29-.72-.52 0-.95.25-1.29.75-.32.48-.48 1.22-.48 2.22 0 1 .16 1.75.48 2.25.34.48.77.72 1.29.72zm14.82 12.75c-1.6 0-2.9-.52-3.9-1.56-.98-1.04-1.47-2.46-1.47-4.26 0-1.78.5-3.19 1.5-4.23 1-1.06 2.29-1.59 3.87-1.59 1.6 0 2.9.53 3.9 1.59 1 1.04 1.5 2.45 1.5 4.23 0 1.8-.5 3.22-1.5 4.26-1 1.04-2.3 1.56-3.9 1.56zm0-2.85c.54 0 .97-.24 1.29-.72.32-.48.48-1.23.48-2.25s-.16-1.77-.48-2.25c-.32-.48-.75-.72-1.29-.72s-.97.24-1.29.72c-.32.48-.48 1.23-.48 2.25s.16 1.77.48 2.25c.32.48.75.72 1.29.72z" fill="#fff"/><circle cx="23.5" cy="23.5" r="23" stroke="#fff"/></svg>

<svg width="47" height="47" viewBox="0 0 47 47" fill="none" xmlns="http://www.w3.org/2000/svg">
<path d="M16.03 24.37C14.45 24.37 13.16 23.85 12.16 22.81C11.16 21.77 10.66 20.35 10.66 18.55C10.66 17.37 10.89 16.34 11.35 15.46C11.81 14.58 12.44 13.91 13.24 13.45C14.06 12.97 14.99 12.73 16.03 12.73C17.63 12.73 18.93 13.26 19.93 14.32C20.93 15.36 21.43 16.77 21.43 18.55C21.43 20.35 20.93 21.77 19.93 22.81C18.93 23.85 17.63 24.37 16.03 24.37ZM28.45 13H32.77L18.43 34H14.11L28.45 13ZM16.03 21.52C16.57 21.52 17 21.28 17.32 20.8C17.64 20.32 17.8 19.57 17.8 18.55C17.8 17.53 17.64 16.78 17.32 16.3C17 15.82 16.57 15.58 16.03 15.58C15.51 15.58 15.08 15.83 14.74 16.33C14.42 16.81 14.26 17.55 14.26 18.55C14.26 19.55 14.42 20.3 14.74 20.8C15.08 21.28 15.51 21.52 16.03 21.52ZM30.85 34.27C29.25 34.27 27.95 33.75 26.95 32.71C25.97 31.67 25.48 30.25 25.48 28.45C25.48 26.67 25.98 25.26 26.98 24.22C27.98 23.16 29.27 22.63 30.85 22.63C32.45 22.63 33.75 23.16 34.75 24.22C35.75 25.26 36.25 26.67 36.25 28.45C36.25 30.25 35.75 31.67 34.75 32.71C33.75 33.75 32.45 34.27 30.85 34.27ZM30.85 31.42C31.39 31.42 31.82 31.18 32.14 30.7C32.46 30.22 32.62 29.47 32.62 28.45C32.62 27.43 32.46 26.68 32.14 26.2C31.82 25.72 31.39 25.48 30.85 25.48C30.31 25.48 29.88 25.72 29.56 26.2C29.24 26.68 29.08 27.43 29.08 28.45C29.08 29.47 29.24 30.22 29.56 30.7C29.88 31.18 30.31 31.42 30.85 31.42Z" fill="white"/>
<circle cx="23.5" cy="23.5" r="23" stroke="white"/>
</svg>
